community-project-boilerplate/src/community-project-boilerplate-docgen/assets/images/background-hero.svg

<svg xmlns="http://www.w3.org/2000/svg" width="1407" height="448" viewBox="0 0 1407 448">
  <defs>
    <linearGradient id="a" x1="0%" x2="135.886%" y1="100%" y2="100%">
      <stop stop-color="#00D8FF" stop-opacity="0" offset="0%"/>
      <stop stop-color="#00D8FF" offset="26.611%"/>
      <stop stop-color="#00A7FF" offset="100%"/>
    </linearGradient>
  </defs>
  <g fill="url(#a)" fill-rule="evenodd">
    <path d="M0 320L163.45914 320C172.298538 320 179.464286 327.161501 179.464286 336L179.464286 336C179.464286 344.836556 172.304428 352 163.45914 352L0 352 0 320zM0 352L272.939619 352C281.775005 352 288.9375 359.161501 288.9375 368L288.9375 368C288.9375 376.836556 281.777195 384 272.939619 384L0 384 0 352zM0 416L91.6742726 416C100.513203 416 107.678571 423.161501 107.678571 432L107.678571 432C107.678571 440.836556 100.509175 448 91.6742726 448L0 448 0 416zM0 64L276.52637 64C285.363156 64 292.526786 71.1615011 292.526786 80L292.526786 80C292.526786 88.836556 285.368389 96 276.52637 96L0 96 0 64zM0 32L186.797028 32C195.632267 32 202.794643 39.1615011 202.794643 48L202.794643 48C202.794643 56.836556 195.636641 64 186.797028 64L0 64 0 32zM0-.42108547e-14L73.7415627-.42108547e-14C82.5729163-.42108547e-14 89.7321429 7.16150109 89.7321429 16L89.7321429 16C89.7321429 24.836556 82.5783803 32 73.7415627 32L0 32 0-.42108547e-14zM0 224L1275.24038 224C1284.07979 224 1291.24554 231.161501 1291.24554 240L1291.24554 240C1291.24554 248.836556 1284.08279 256 1275.24038 256L0 256 0 224z"/>
    <path d="M0,192 L1347.93083,192 C1356.76614,192 1363.92857,199.161501 1363.92857,208 L1363.92857,208 C1363.92857,216.836556 1356.774,224 1347.93083,224 L0,224 L0,192 Z" opacity=".5"/>
    <path d="M0 192L822.996231 192C831.832403 192 838.995536 199.161501 838.995536 208L838.995536 208C838.995536 216.836556 831.837373 224 822.996231 224L0 224 0 192zM0 160L1202.56918 160C1211.40205 160 1218.5625 167.161501 1218.5625 176L1218.5625 176C1218.5625 184.836556 1211.40634 192 1202.56918 192L0 192 0 160z"/>
    <path d="M0 160L1391.00191 160C1399.83741 160 1407 167.161501 1407 176L1407 176C1407 184.836556 1399.82735 192 1391.00191 192L0 192 0 160zM0 128L1275.24038 128C1284.07979 128 1291.24554 135.161501 1291.24554 144L1291.24554 144C1291.24554 152.836556 1284.08279 160 1275.24038 160L0 160 0 128zM-.13686838e-13 96L835.564779 96C844.397611 96 851.558036 103.161501 851.558036 112L851.558036 112C851.558036 120.836556 844.388506 128 835.564779 128L-.13686838e-13 128-.13686838e-13 96z"/>
    <path d="M0,160 L1053.60441,160 C1062.44248,160 1069.60714,167.161501 1069.60714,176 L1069.60714,176 C1069.60714,184.836556 1062.44043,192 1053.60441,192 L0,192 L0,160 Z"/>
    <path d="M-.84217094e-14 160L415.609285 160C424.447123 160 431.611607 167.161501 431.611607 176L431.611607 176C431.611607 184.836556 424.458025 192 415.609285 192L-.84217094e-14 192-.84217094e-14 160zM.68434189e-14 96L480.218367 96C489.055135 96 496.21875 103.161501 496.21875 112L496.21875 112C496.21875 120.836556 489.060814 128 480.218367 128L.68434189e-14 128 .68434189e-14 96z"/>
    <path d="M0,128 L718.905576,128 C727.742504,128 734.90625,135.161501 734.90625,144 L734.90625,144 C734.90625,152.836556 727.750924,160 718.905576,160 L0,160 L0,128 Z" opacity=".5"/>
    <path d="M0 256L630.080927 256C638.912237 256 646.071429 263.161501 646.071429 272L646.071429 272C646.071429 280.836556 638.898695 288 630.080927 288L0 288 0 256zM0 128L247.805594 128C256.645964 128 263.8125 135.161501 263.8125 144L263.8125 144C263.8125 152.836556 256.653652 160 247.805594 160L0 160 0 128z"/>
    <path d="M0 256L199.357266 256C208.193754 256 215.357143 263.161501 215.357143 272L215.357143 272C215.357143 280.836556 208.191825 288 199.357266 288L0 288 0 256zM0 288L561.873077 288C570.710695 288 577.875 295.161501 577.875 304L577.875 304C577.875 312.836556 570.712166 320 561.873077 320L0 320 0 288z"/>
    <path d="M0,288 L701.857187,288 C710.693719,288 717.857143,295.161501 717.857143,304 L717.857143,304 C717.857143,312.836556 710.694141,320 701.857187,320 L0,320 L0,288 Z"/>
    <path d="M0,288 L342.925991,288 C351.763972,288 358.928571,295.161501 358.928571,304 L358.928571,304 C358.928571,312.836556 351.758837,320 342.925991,320 L0,320 L0,288 Z"/>
  </g>
</svg>

<svg xmlns="http://www.w3.org/2000/svg" width="1407" height="448" viewBox="0 0 1407 448">
    <defs>
        <linearGradient id="a" x1="97.305%" x2="0%" y1="100%" y2="100%">
            <stop offset="0%" stop-color="#C3002F"/>
            <stop offset="100%" stop-color="#DD0031" stop-opacity="0"/>
        </linearGradient>
    </defs>
    <g fill="url(#a)" fill-rule="evenodd">
        <path d="M0 320h163.46c8.839 0 16.004 7.162 16.004 16 0 8.837-7.16 16-16.005 16H0v-32z" opacity=".9"/>
        <path d="M0 352h272.94c8.835 0 15.998 7.162 15.998 16 0 8.837-7.16 16-15.998 16H0v-32z" opacity=".4"/>
        <path d="M0 416h91.674c8.84 0 16.005 7.162 16.005 16 0 8.837-7.17 16-16.005 16H0v-32z" opacity=".2"/>
        <path d="M0 64h276.526c8.837 0 16 7.162 16 16 0 8.837-7.158 16-16 16H0V64zM0 32h186.797c8.835 0 15.998 7.162 15.998 16 0 8.837-7.158 16-15.998 16H0V32z" opacity=".9"/>
        <path d="M0 0h73.742c8.83 0 15.99 7.162 15.99 16 0 8.837-7.154 16-15.99 16H0V0z" opacity=".2"/>
        <path d="M0 224h1275.24c8.84 0 16.006 7.162 16.006 16 0 8.837-7.163 16-16.006 16H0v-32z"/>
        <path d="M0 192h1347.93c8.836 0 15.999 7.162 15.999 16 0 8.837-7.155 16-15.998 16H0v-32z" opacity=".9"/>
        <path d="M0 192h822.996c8.836 0 16 7.162 16 16 0 8.837-7.159 16-16 16H0v-32zM0 160h1202.57c8.832 0 15.993 7.162 15.993 16 0 8.837-7.157 16-15.994 16H0v-32z" opacity=".9"/>
        <path d="M0 160h1391.002c8.835 0 15.998 7.162 15.998 16 0 8.837-7.173 16-15.998 16H0v-32z" opacity=".4"/>
        <path d="M0 128h1275.24c8.84 0 16.006 7.162 16.006 16 0 8.837-7.163 16-16.006 16H0v-32z" opacity=".2"/>
        <path d="M0 96h835.565c8.833 0 15.993 7.162 15.993 16 0 8.837-7.17 16-15.993 16H0V96z" opacity=".4"/>
        <path d="M0 160h1053.604c8.838 0 16.003 7.162 16.003 16 0 8.837-7.167 16-16.003 16H0v-32z" opacity=".2" style="mix-blend-mode:overlay"/>
        <path d="M0 160h415.61c8.837 0 16.002 7.162 16.002 16 0 8.837-7.154 16-16.003 16H0v-32zM0 96h480.218c8.837 0 16 7.162 16 16 0 8.837-7.157 16-16 16H0V96zM0 128h718.906c8.837 0 16 7.162 16 16 0 8.837-7.155 16-16 16H0v-32zM0 256h630.08c8.832 0 15.991 7.162 15.991 16 0 8.837-7.172 16-15.99 16H0v-32z" opacity=".9"/>
        <path d="M0 128h247.806c8.84 0 16.006 7.162 16.006 16 0 8.837-7.158 16-16.006 16H0v-32z" opacity=".2" style="mix-blend-mode:overlay"/>
        <path d="M0 256h199.357c8.837 0 16 7.162 16 16 0 8.837-7.165 16-16 16H0v-32z" opacity=".3" style="mix-blend-mode:overlay"/>
        <path d="M0 288h561.873c8.838 0 16.002 7.162 16.002 16 0 8.837-7.163 16-16.002 16H0v-32z" opacity=".4"/>
        <path d="M0 288h701.857c8.837 0 16 7.162 16 16 0 8.837-7.163 16-16 16H0v-32z" opacity=".4"/>
        <path d="M0 288h342.926c8.838 0 16.003 7.162 16.003 16 0 8.837-7.17 16-16.003 16H0v-32z" opacity=".9"/>
    </g>
</svg>
